Suru++-Ubuntu/apps/scalable/org.gnome.Todo.svg

<svg width="256" height="256" version="1.1" viewBox="0 0 67.73 67.73" xmlns="http://www.w3.org/2000/svg" xmlns:xlink="http://www.w3.org/1999/xlink">
 <defs>
  <linearGradient id="linearGradient1108" x1="296" x2="296" y1="-212" y2="236" gradientUnits="userSpaceOnUse">
   <stop style="stop-color:#ffffff" offset="0"/>
   <stop style="stop-color:#ffffff;stop-opacity:.09803922" offset=".125"/>
   <stop style="stop-color:#000000;stop-opacity:.09803922" offset=".925"/>
   <stop style="stop-color:#000000;stop-opacity:.49803922" offset="1"/>
  </linearGradient>
  <clipPath id="clipPath1082-3-3675">
   <path d="M 361.9375,-212 C 507.2348,-212 528,-191.28677 528,-46.125 V 70.125 C 528,215.28618 507.2348,236 361.9375,236 H 214.0625 C 68.7652,236 48,215.28618 48,70.125 V -46.125 C 48,-191.28677 68.7652,-212 214.0625,-212 Z" style="fill:#8c59d9"/>
  </clipPath>
  <filter id="filter930" x="-.02" y="-.03" width="1.046" height="1.05" style="color-interpolation-filters:sRGB">
   <feGaussianBlur stdDeviation="2.32"/>
  </filter>
  <filter id="filter4569" x="-.01" y="-.01" width="1.023" height="1.025" style="color-interpolation-filters:sRGB">
   <feGaussianBlur stdDeviation="1.16"/>
  </filter>
 </defs>
 <g transform="translate(0,-229.26666)">
  <path transform="matrix(.26458333 0 0 .26458333 -1.8735229e-8 232.67026)" d="m162.53675 3.5680001c72.64865 0 83.03125 10.356615 83.03125 82.937505v58.125005c0 72.58059-10.3826 82.9375-83.03125 82.9375h-73.937496c-72.648654 0-83.031254-10.35691-83.031254-82.9375v-58.125005c0-72.58089 10.3826-82.937505 83.031254-82.937505z" style="filter:url(#filter4569);opacity:.1"/>
  <path transform="matrix(.26458333 0 0 .26458333 -1.8735229e-8 232.67026)" d="m162.53675 5.5680001c72.64865 0 83.03125 10.356615 83.03125 82.937505v58.125005c0 72.58059-10.3826 82.9375-83.03125 82.9375h-73.937496c-72.648654 0-83.031254-10.35691-83.031254-82.9375v-58.125005c0-72.58089 10.3826-82.937505 83.031254-82.937505z" style="filter:url(#filter930);opacity:.2"/>
  <path d="m43.004513 233.61429c19.221622 0 21.968685 2.74019 21.968685 21.94388v15.37891c0 19.20362-2.747063 21.94388-21.968685 21.94388h-19.56263c-19.221622 0-21.968685-2.74026-21.968685-21.94388v-15.37891c0-19.20369 2.7470629-21.94388 21.968685-21.94388z" style="fill:#3583e5"/>
  <g transform="matrix(2.8626705,0,0,2.8626705,67.590784,-438.87806)" style="opacity:.2">
   <path transform="matrix(.09242535 0 0 .09242535 -23.611095 233.3991)" d="m241.25 49.259766c-0.11331-0.408511-0.18776-0.888396-0.30664-1.28711-0.72224-2.422245-1.5495-4.664823-2.49219-6.740234s-2.00098-3.984379-3.18945-5.738281c-1.18848-1.753903-2.50721-3.352827-3.9668-4.810547-1.45959-1.457721-3.06036-2.774073-4.8164-3.960938-0.72785-0.491933-1.59901-0.871834-2.38086-1.320312l-122.66016 123.29688-45.357422-45.35547-21.074219 21.07617 66.431641 66.4336 139.3125-141.26954c0.24406-0.153775 0.36976-0.237381 0.5-0.324218z"/>
  </g>
  <g transform="matrix(2.8626705,0,0,2.8626705,67.590784,-438.34889)">
   <path transform="matrix(.09242535 0 0 .09242535 -23.611095 233.21425)" d="m241.66406 50.990234c-0.24853-0.989175-0.44194-2.082684-0.7207-3.017578-0.72224-2.422245-1.5495-4.664823-2.49219-6.740234s-2.00098-3.984379-3.18945-5.738281c-1.18848-1.753903-2.50721-3.352827-3.9668-4.810547-1.45959-1.457721-3.06036-2.774073-4.8164-3.960938-0.29381-0.198576-0.65842-0.341795-0.96094-0.533203-0.44245 0.382024-0.78027 0.629137-1.23242 1.023438l-122.84766 123.48633-45.357422-45.35547-21.074219 21.07617 66.431641 66.4336 139.3125-141.26954c0.4464-0.281266 0.48056-0.320097 0.91406-0.59375z" style="fill:#fefefe"/>
  </g>
  <path transform="matrix(.13229167 0 0 .13229167 -4.8768016 261.66013)" d="M 361.9375,-212 C 507.2348,-212 528,-191.28677 528,-46.125 V 70.125 C 528,215.28618 507.2348,236 361.9375,236 H 214.0625 C 68.7652,236 48,215.28618 48,70.125 V -46.125 C 48,-191.28677 68.7652,-212 214.0625,-212 Z" clip-path="url(#clipPath1082-3-3675)" style="fill:none;opacity:.5;stroke-linecap:round;stroke-linejoin:round;stroke-width:8;stroke:url(#linearGradient1108)"/>
 </g>
</svg>

<svg xmlns="http://www.w3.org/2000/svg" xmlns:xlink="http://www.w3.org/1999/xlink" width="256" height="256" version="1.1" viewBox="0 0 67.73 67.73">
 <defs>
  <linearGradient id="linearGradient1108" x1="296" x2="296" y1="-212" y2="236" gradientUnits="userSpaceOnUse" xlink:href="#linearGradient1013"/>
  <linearGradient id="linearGradient1013">
   <stop style="stop-color:#ffffff" offset="0"/>
   <stop offset=".125" style="stop-color:#ffffff;stop-opacity:0.09803922"/>
   <stop offset=".925" style="stop-color:#000000;stop-opacity:0.09803922"/>
   <stop style="stop-color:#000000;stop-opacity:0.49803922" offset="1"/>
  </linearGradient>
  <clipPath id="clipPath1082-3-3675" clipPathUnits="userSpaceOnUse">
   <path style="fill:#8c59d9" d="M 361.9375,-212 C 507.2348,-212 528,-191.28677 528,-46.125 V 70.125 C 528,215.28618 507.2348,236 361.9375,236 H 214.0625 C 68.7652,236 48,215.28618 48,70.125 V -46.125 C 48,-191.28677 68.7652,-212 214.0625,-212 Z"/>
  </clipPath>
  <filter id="filter930" width="1.046" height="1.05" x="-.02" y="-.03" style="color-interpolation-filters:sRGB">
   <feGaussianBlur stdDeviation="2.32"/>
  </filter>
  <filter id="filter4569" width="1.023" height="1.025" x="-.01" y="-.01" style="color-interpolation-filters:sRGB">
   <feGaussianBlur stdDeviation="1.16"/>
  </filter>
 </defs>
 <g transform="translate(0,-229.26666)">
  <path style="opacity:0.1;filter:url(#filter4569)" d="m 162.53675,3.5680001 c 72.64865,0 83.03125,10.3566149 83.03125,82.9375049 v 58.125005 c 0,72.58059 -10.3826,82.9375 -83.03125,82.9375 H 88.599254 C 15.9506,227.56801 5.568,217.2111 5.568,144.63051 V 86.505505 c 0,-72.58089 10.3826,-82.9375049 83.031254,-82.9375049 z" transform="matrix(0.26458333,0,0,0.26458333,-1.8735229e-8,232.67026)"/>
  <path d="m 162.53675,5.5680001 c 72.64865,0 83.03125,10.3566149 83.03125,82.9375049 v 58.125005 c 0,72.58059 -10.3826,82.9375 -83.03125,82.9375 H 88.599254 C 15.9506,229.56801 5.568,219.2111 5.568,146.63051 V 88.505505 c 0,-72.58089 10.3826,-82.9375049 83.031254,-82.9375049 z" transform="matrix(0.26458333,0,0,0.26458333,-1.8735229e-8,232.67026)" style="opacity:0.2;filter:url(#filter930)"/>
  <path d="m 43.004513,233.61429 c 19.221622,0 21.968685,2.74019 21.968685,21.94388 v 15.37891 c 0,19.20362 -2.747063,21.94388 -21.968685,21.94388 h -19.56263 c -19.2216217,0 -21.9686846,-2.74026 -21.9686846,-21.94388 v -15.37891 c 0,-19.20369 2.7470629,-21.94388 21.9686846,-21.94388 z" style="fill:#3583e5"/>
  <g style="opacity:0.2" transform="matrix(2.8626705,0,0,2.8626705,67.590784,-438.87806)">
   <path d="M 241.25 49.259766 C 241.13669 48.851255 241.06224 48.37137 240.94336 47.972656 C 240.22112 45.550411 239.39386 43.307833 238.45117 41.232422 C 237.50848 39.157011 236.45019 37.248043 235.26172 35.494141 C 234.07324 33.740238 232.75451 32.141314 231.29492 30.683594 C 229.83533 29.225873 228.23456 27.909521 226.47852 26.722656 C 225.75067 26.230723 224.87951 25.850822 224.09766 25.402344 L 101.4375 148.69922 L 56.080078 103.34375 L 35.005859 124.41992 L 101.4375 190.85352 L 240.75 49.583984 C 240.99406 49.430209 241.11976 49.346603 241.25 49.259766 z" transform="matrix(0.09242535,0,0,0.09242535,-23.611095,233.3991)"/>
  </g>
  <g transform="matrix(2.8626705,0,0,2.8626705,67.590784,-438.34889)">
   <path d="M 241.66406 50.990234 C 241.41553 50.001059 241.22212 48.90755 240.94336 47.972656 C 240.22112 45.550411 239.39386 43.307833 238.45117 41.232422 C 237.50848 39.157011 236.45019 37.248043 235.26172 35.494141 C 234.07324 33.740238 232.75451 32.141314 231.29492 30.683594 C 229.83533 29.225873 228.23456 27.909521 226.47852 26.722656 C 226.18471 26.52408 225.8201 26.380861 225.51758 26.189453 C 225.07513 26.571477 224.73731 26.81859 224.28516 27.212891 L 101.4375 150.69922 L 56.080078 105.34375 L 35.005859 126.41992 L 101.4375 192.85352 L 240.75 51.583984 C 241.1964 51.302718 241.23056 51.263887 241.66406 50.990234 z" transform="matrix(0.09242535,0,0,0.09242535,-23.611095,233.21425)" style="fill:#fefefe"/>
  </g>
  <path style="opacity:0.5;fill:none;stroke:url(#linearGradient1108);stroke-width:8;stroke-linecap:round;stroke-linejoin:round" d="M 361.9375,-212 C 507.2348,-212 528,-191.28677 528,-46.125 V 70.125 C 528,215.28618 507.2348,236 361.9375,236 H 214.0625 C 68.7652,236 48,215.28618 48,70.125 V -46.125 C 48,-191.28677 68.7652,-212 214.0625,-212 Z" clip-path="url(#clipPath1082-3-3675)" transform="matrix(0.13229167,0,0,0.13229167,-4.8768016,261.66013)"/>
 </g>
</svg>
